components/ui-node-icon/src/jsonFile/jsonFile.medium.svg

<svg width="24" height="24" viewBox="0 0 24 24" fill="none" xmlns="http://www.w3.org/2000/svg">
  <path fill-rule="evenodd" clip-rule="evenodd" d="M4 5C4 3.34315 5.34315 2 7 2H15L20 7V19C20 20.6569 18.6569 22 17 22H7C5.34315 22 4 20.6569 4 19V5ZM8.5 9C7.67159 9 7.00002 9.67156 7 10.5L6.99999 11.7658L5.9799 12.6159V13.3841L6.99999 14.2342L7 15.5C7.00002 16.3284 7.67159 17 8.5 17H9.50002C9.77616 17 10 16.7761 10 16.5C10 16.2239 9.77616 16 9.50002 16H8.5C8.22386 16 8.00001 15.7761 8 15.5L7.99998 14L7.99998 13.7658L7.82008 13.6159L7.08101 13L7.82008 12.3841L7.99998 12.2342L7.99998 12L8 10.5C8.00001 10.2239 8.22386 10 8.5 10H9.50002C9.77616 10 10 9.77614 10 9.5C10 9.22386 9.77616 9 9.50002 9H8.5ZM15.3 9C16.1284 9 16.8 9.67158 16.8 10.5L16.8 11.7658L17.8201 12.6159V13.3841L16.8 14.2342L16.8 15.5C16.8 16.3284 16.1284 17 15.3 17H14.3C14.0239 17 13.8 16.7761 13.8 16.5C13.8 16.2239 14.0239 16 14.3 16H15.3C15.5762 16 15.8 15.7761 15.8 15.5L15.8 14L15.8 13.7658L15.9799 13.6159L16.719 13L15.9799 12.3841L15.8 12.2342L15.8 12L15.8 10.5C15.8 10.2239 15.5762 10 15.3 10H14.3C14.0239 10 13.8 9.77614 13.8 9.5C13.8 9.22386 14.0239 9 14.3 9H15.3ZM13 11C13 11.5523 12.5523 12 12 12C11.4477 12 11 11.5523 11 11C11 10.4477 11.4477 10 12 10C12.5523 10 13 10.4477 13 11ZM12 13C12.5523 13 13 13.4477 13 14C13 15.3308 11.4257 15.8745 11.0706 15.9802C11.1926 15.9236 11.4353 15.7048 11.4892 14.8599C11.1963 14.6855 11 14.3657 11 14C11 13.4477 11.4477 13 12 13ZM11 16C11 16 11.0279 16 11.0706 15.9802C11.0254 15.9936 11 16 11 16Z" fill="var(--tbl--colors--icons--transformation--primary)"/>
  <path d="M20 7L15 2V5C15 6.10457 15.8954 7 17 7H20Z" fill="white" fill-opacity="0.5"/>
</svg>

<svg xmlns="http://www.w3.org/2000/svg" width="24" height="24" fill="none" viewBox="0 0 24 24">
  <path fill="var(--tbl--colors--icons--transformation--primary)" fill-rule="evenodd" d="M4 5a3 3 0 0 1 3-3h8l5 5v12a3 3 0 0 1-3 3H7a3 3 0 0 1-3-3V5Zm4.5 4A1.5 1.5 0 0 0 7 10.5v1.266l-1.02.85v.768l1.02.85V15.5A1.5 1.5 0 0 0 8.5 17h1a.5.5 0 0 0 0-1h-1a.5.5 0 0 1-.5-.5v-1.734l-.18-.15L7.081 13l.74-.616.179-.15V10.5a.5.5 0 0 1 .5-.5h1a.5.5 0 0 0 0-1h-1Zm6.8 0a1.5 1.5 0 0 1 1.5 1.5v1.266l1.02.85v.768l-1.02.85V15.5a1.5 1.5 0 0 1-1.5 1.5h-1a.5.5 0 0 1 0-1h1a.5.5 0 0 0 .5-.5v-1.734l.18-.15.739-.616-.74-.616-.179-.15V10.5a.5.5 0 0 0-.5-.5h-1a.5.5 0 0 1 0-1h1ZM13 11a1 1 0 1 1-2 0 1 1 0 0 1 2 0Zm-1 2a1 1 0 0 1 1 1c0 1.33-1.574 1.874-1.93 1.98.123-.056.365-.275.42-1.12A1 1 0 0 1 12 13Zm-1 3s.028 0 .07-.02c-.045.014-.07.02-.07.02Z" clip-rule="evenodd"/>
  <path fill="#fff" fill-opacity=".5" d="m20 7-5-5v3a2 2 0 0 0 2 2h3Z"/>
</svg>
